X:61
T:Assize Assembly, The
M:6/8
L:1/8
B:Thompson's Compleat Collection of 200 Favourite Country Dances, vol. 2 (London, 1765)
Z:Transcribed and edited by Flynn Titford-Mock, 2006-9
Z:abc's:AK/Fiddler's Companion
K:Bb
f | dBb fdB | (A/B/c)A B2F | GAB FED | ECC C2f | dBb fdB | (A/B/c)A B2F | GAB FGE | DB,B, B,2 :|
|: D/E/ | FED EFG | ABc F2B | EGc DFB | GEC "tr"C2 D/E/ | FED GFE | AGF GAB | cde FGE | DB,B, B,2 :|

